X:3212
T:Kate's Kitchen
O:england
M:4/4
L:1/8
Q:120
C:Stephen P. McNally
R:Slow Hornpipe
N:Written for Kate and Dorothy crossley of West Wales
H:Written in late 1997
K:G
|:(3d^c=c|.B>GD>G B>dg>d|.^G>AB>ce4|c>e.a>g f>d^c>d|(3efe(3d^c=cB2(3d^c=
c||
.B>GD>G B>dg>d|.^G>AB>ce4|^d>ea>g f>=de>f|(3ggg(3dBdg2:|
|:(3gf=f|e>cG>c e>a(3gfe|d>BG>Bd3d|.c>AF>A cf-f>e|(3d^cd(3ed=cB2(3gf=f
||
e>cG>c e>a(3gfe|d>BG>Bd3d|^c>da>g f>de>f|(3ggg(3dBdg2:||


